icons/svg/numeric-7-box.svg

﻿<?xml version="1.0" encoding="utf-8"?>
<!DOCTYPE svg PUBLIC "-//W3C//DTD SVG 1.1//EN" "http://www.w3.org/Graphics/SVG/1.1/DTD/svg11.dtd">
<svg xmlns="http://www.w3.org/2000/svg" xmlns:xlink="http://www.w3.org/1999/xlink" version="1.1" baseProfile="full" width="24" height="24" viewBox="0 0 24.00 24.00" enable-background="new 0 0 24.00 24.00" xml:space="preserve">
	<path fill="#000000" fill-opacity="1" stroke-width="0.2" stroke-linejoin="round" d="M 19,3C 20.1,3 21,3.9 21,5L 21,19C 21,20.1 20.1,21 19,21L 5.00001,21C 3.90001,21 3.00001,20.1 3.00001,19L 3.00001,5C 3.00001,3.9 3.90001,3 5.00001,3L 19,3 Z M 11,17L 15,9L 15,6.99999L 9.00001,6.99999L 9.00001,9L 13,9L 9.00001,17L 11,17 Z "/>
</svg>

<svg xmlns="http://www.w3.org/2000/svg" version="1.1" baseProfile="full" width="24" height="24" viewBox="0 0 24.00 24.00" xml:space="preserve"><path fill="#000" fill-opacity="1" stroke-width=".2" stroke-linejoin="round" d="M19 3c1.1 0 2 .9 2 2v14c0 1.1-.9 2-2 2H5c-1.1 0-2-.9-2-2V5c0-1.1.9-2 2-2h14zm-8 14l4-8V7H9v2h4l-4 8h2z"/></svg>
